!!!OTL: IM MAIEN IM MAIEN BLUEHN SUESSE BLUEMELEIN
!!!ARE: Europa, Mitteleuropa, Deutschland
!!!SCT: B0440
!!!YEM: Copyright 1995, estate of Helmut Schaffrath.
**kern
*ICvox
*Ivox
*M6/8
*k[f#]
*G:
{8g
=1
4.g
4d
8b
=2
4.b
4g}
{16b
16cc
=3
4dd
8ee
4cc
8dd
=4
2b
8r}
{8g
=5
4f#
8a
4g
8b
=6
8a
8dd
8cc
4b}
{8a
=7
4g#
8b
4a
8cc
=8
8b
8ee
8dd
4cc}
{8ee
=9
4.dd
4a
8b
=10
4g
4.r}
==
!!!AGN: Liebes - Lied, Liebes - Lust, Fruehling
!!!ONB: ESAC (Essen Associative Code) Database: BOEHME
!!!AMT: compound duple
!!!AIN: vox
!!!EED: Helmut Schaffrath
!!!EEV: 1.0
*-
